tools/download-figma-icons/icons/solid/mail.svg

<svg width="24" height="24" viewBox="0 0 24 24" fill="none" xmlns="http://www.w3.org/2000/svg">
<path fill-rule="evenodd" clip-rule="evenodd" d="M20.475 16.2377C20.79 16.5069 20.82 16.9877 20.55 17.2944C20.3993 17.4676 20.1975 17.5576 19.9875 17.5576C19.8068 17.5576 19.635 17.4976 19.4918 17.3702L14.9318 13.4094L12.3451 15.6452C12.3068 15.6827 12.2626 15.6969 12.2176 15.7202C12.1951 15.7344 12.1651 15.7569 12.1351 15.7644C12.0451 15.8027 11.9551 15.8327 11.8576 15.8327C11.7601 15.8327 11.6626 15.8027 11.5726 15.7644C11.5426 15.7569 11.5201 15.7344 11.4901 15.7202C11.4451 15.6969 11.3993 15.6827 11.3626 15.6452L8.77434 13.4094L4.21436 17.3702C4.07261 17.4976 3.89936 17.5576 3.72761 17.5576C3.51761 17.5576 3.30687 17.4676 3.15762 17.2944C2.88762 16.9877 2.91762 16.5069 3.23262 16.2377L7.62759 12.4194L3.23262 8.6252C2.91762 8.34695 2.88762 7.8752 3.15762 7.56695C3.42761 7.2527 3.89936 7.2152 4.21436 7.48445L11.8576 14.0852L19.4918 7.48445C19.8068 7.2152 20.28 7.2527 20.55 7.56695C20.8275 7.8752 20.79 8.34695 20.475 8.6252L16.08 12.4194L20.475 16.2377ZM22.125 3.75023H1.87511C0.839368 3.75023 0.00012207 4.59022 0.00012207 5.62522V18.8701C0.00012207 19.8976 0.839368 20.7451 1.87511 20.7451H22.125C23.16 20.7451 24 19.8976 24 18.8701V5.62522C24 4.59022 23.16 3.75023 22.125 3.75023Z" fill="black"/>
</svg>

<svg xmlns="http://www.w3.org/2000/svg" width="24" height="24" fill="none" viewBox="0 0 24 24"><path fill="currentColor" fill-rule="evenodd" d="M20.475 16.238c.315.269.345.75.075 1.056a.74.74 0 0 1-1.058.076l-4.56-3.96-2.587 2.235c-.038.038-.082.052-.127.075-.023.014-.053.037-.083.044a.7.7 0 0 1-.277.069.7.7 0 0 1-.285-.069c-.03-.007-.053-.03-.083-.044-.045-.023-.09-.037-.127-.075L8.774 13.41l-4.56 3.961a.72.72 0 0 1-.486.188.75.75 0 0 1-.57-.264.75.75 0 0 1 .075-1.056l4.395-3.819-4.395-3.794a.75.75 0 0 1-.075-1.058.75.75 0 0 1 1.056-.083l7.644 6.601 7.634-6.6a.75.75 0 0 1 1.058.082c.277.308.24.78-.075 1.058L16.08 12.42zm1.65-12.488H1.875C.84 3.75 0 4.59 0 5.625V18.87a1.88 1.88 0 0 0 1.875 1.875h20.25A1.88 1.88 0 0 0 24 18.87V5.625c0-1.035-.84-1.875-1.875-1.875" clip-rule="evenodd"/></svg>
